app/images/login.svg

<svg width="40" height="40" viewBox="0 0 40 40" fill="none" xmlns="http://www.w3.org/2000/svg">
<path d="M19.4615 15.0001L25 20.1925L19.4615 25.3849" stroke="#FFFFFF" stroke-width="2" stroke-linecap="round" stroke-linejoin="round"/>
<path d="M24 20L9 20" stroke="#FFFFFF" stroke-width="2" stroke-linecap="round" stroke-linejoin="round"/>
<path d="M11.5147 28.4853C11.1242 28.0948 10.491 28.0948 10.1005 28.4853C9.70999 28.8758 9.70999 29.509 10.1005 29.8995L11.5147 28.4853ZM10.1005 10.1005C9.70999 10.491 9.70999 11.1242 10.1005 11.5147C10.491 11.9052 11.1242 11.9052 11.5147 11.5147L10.1005 10.1005ZM28.4853 11.5147C33.1716 16.201 33.1716 23.799 28.4853 28.4853L29.8995 29.8995C35.3668 24.4322 35.3668 15.5678 29.8995 10.1005L28.4853 11.5147ZM28.4853 28.4853C23.799 33.1716 16.201 33.1716 11.5147 28.4853L10.1005 29.8995C15.5679 35.3668 24.4322 35.3668 29.8995 29.8995L28.4853 28.4853ZM11.5147 11.5147C16.201 6.82843 23.799 6.82843 28.4853 11.5147L29.8995 10.1005C24.4322 4.63317 15.5679 4.63316 10.1005 10.1005L11.5147 11.5147Z" fill="#FFFFFF"/>
</svg>

<svg width="40" height="40" fill="none" xmlns="http://www.w3.org/2000/svg"><path d="M19.462 15L25 20.192l-5.538 5.193M24 20H9" stroke="#FFF" stroke-width="2" stroke-linecap="round" stroke-linejoin="round"/><path d="M11.515 28.485A1 1 0 0010.1 29.9l1.415-1.415zM10.1 10.101a1 1 0 001.415 1.414L10.1 10.1zm18.385 1.414c4.687 4.686 4.687 12.284 0 16.97L29.9 29.9c5.467-5.468 5.467-14.332 0-19.8l-1.415 1.415zm0 16.97c-4.686 4.687-12.284 4.687-16.97 0L10.1 29.9c5.468 5.467 14.332 5.467 19.8 0l-1.415-1.415zm-16.97-16.97c4.686-4.687 12.284-4.687 16.97 0L29.9 10.1c-5.468-5.467-14.332-5.467-19.8 0l1.415 1.415z" fill="#FFF"/></svg>
